X: '1'
T:Sylvie
C:Laurence Beaudry
R:waltz
M:3/4
L:1/8
K:D
FG | A2 AF Ad | B3A GF | G3 F ED | C2 A,2 FG |
A2 AF cd | B3g fe |1 ca ^ga ^ga | f2 d2 :|2 ca ^ga =ge | d6 |:
c3B cd | e3f ef | ga gf ed | c2 A2 F2 | G3F GB | e3d cB |
cB AG FD | E2 C2A,2 | c3B cd | e3f ga | ba gf ed | c2 A2 F2 |
G3F GB | e2d cB | cB AG FE | D6 |]
